www/images/pieces/california/bR.svg

<?xml version="1.0" encoding="UTF-8"?>
<svg xmlns="http://www.w3.org/2000/svg" xmlns:xlink="http://www.w3.org/1999/xlink" width="100" height="100" viewBox="-50 -100 386.833 503" version="1.1">
<defs>
<clipPath id="clip1">
  <path d="M 0 0 L 296.832031 0 L 296.832031 373 L 0 373 Z M 0 0 "/>
</clipPath>
</defs>
<g id="surface1" transform="translate(0 -20)">
<path style=" stroke:none;fill-rule:nonzero;fill:rgb(30.195618%,30.195618%,30.195618%);fill-opacity:1;" d="M 49.320312 182.347656 C 49.804688 113.917969 5.804688 57.183594 18.757812 16.238281 L 278.078125 16.238281 C 291.03125 57.183594 247.03125 113.917969 247.515625 182.347656 C 248.023438 254.550781 291.425781 314.5625 278.078125 356.765625 L 18.757812 356.765625 C 5.40625 314.5625 48.808594 254.550781 49.320312 182.347656 "/>
<path style=" stroke:none;fill-rule:nonzero;fill:rgb(50.196838%,50.196838%,50.196838%);fill-opacity:1;" d="M 92.859375 18 C 83.117188 73.203125 98.859375 143.324219 98.859375 191 C 98.859375 237.542969 80.613281 292.054688 83.859375 357 L 23.519531 356.765625 L 42.859375 191 L 23.519531 15.804688 Z M 92.859375 18 "/>
<g clip-path="url(#clip1)" clip-rule="nonzero">
<path style=" stroke:none;fill-rule:nonzero;fill:rgb(0%,0%,0%);fill-opacity:1;" d="M 251.265625 281.757812 C 242.019531 252.527344 231.539062 219.402344 231.277344 182.464844 C 231.023438 146.65625 241.722656 114.730469 251.160156 86.5625 C 258.113281 65.804688 264.324219 47.269531 264.226562 32.472656 L 32.605469 32.472656 C 32.507812 47.269531 38.71875 65.804688 45.671875 86.5625 C 55.109375 114.730469 65.808594 146.65625 65.554688 182.464844 C 65.292969 219.402344 54.8125 252.53125 45.566406 281.757812 C 38.40625 304.402344 32.019531 324.585938 32.464844 340.527344 L 264.371094 340.527344 C 264.8125 324.585938 258.429688 304.402344 251.265625 281.757812 M 3.277344 361.660156 C -5.246094 334.722656 4.398438 304.238281 14.605469 271.964844 C 23.160156 244.925781 32.855469 214.277344 33.082031 182.234375 C 33.300781 151.839844 23.9375 123.898438 14.882812 96.878906 C 4.65625 66.355469 -5.007812 37.523438 3.277344 11.339844 C 5.410156 4.589844 11.675781 0 18.757812 0 L 278.078125 0 C 285.15625 0 291.421875 4.589844 293.558594 11.339844 C 301.839844 37.523438 292.179688 66.355469 281.949219 96.878906 C 272.894531 123.898438 263.535156 151.839844 263.75 182.234375 C 263.976562 214.277344 273.671875 244.921875 282.226562 271.964844 C 292.4375 304.234375 302.078125 334.722656 293.558594 361.660156 C 291.421875 368.410156 285.15625 373 278.078125 373 L 18.757812 373 C 11.675781 373 5.410156 368.410156 3.277344 361.660156 "/>
</g>
<path style="fill:none;stroke-width:30;stroke-linecap:butt;stroke-linejoin:round;stroke:rgb(0%,0%,0%);stroke-opacity:1;stroke-miterlimit:10;" d="M -0.00136875 -0.00096875 L -0.00136875 -58.137687 " transform="matrix(1,0,0,-1,98.5834,24.542)"/>
<path style="fill:none;stroke-width:30;stroke-linecap:butt;stroke-linejoin:round;stroke:rgb(0%,0%,0%);stroke-opacity:1;stroke-miterlimit:10;" d="M -0.0004 -0.00096875 L -0.0004 -58.137687 " transform="matrix(1,0,0,-1,198.2504,24.542)"/>
<path style="fill:none;stroke-width:30;stroke-linecap:butt;stroke-linejoin:round;stroke:rgb(0%,0%,0%);stroke-opacity:1;stroke-miterlimit:10;" d="M -0.00135 -0.0019375 L 250.143181 -0.0019375 " transform="matrix(1,0,0,-1,23.3451,298.2715)"/>
<path style="fill:none;stroke-width:30;stroke-linecap:butt;stroke-linejoin:round;stroke:rgb(0%,0%,0%);stroke-opacity:1;stroke-miterlimit:10;" d="M 0.0006125 -0.0010125 L 215.945925 -0.0010125 " transform="matrix(1,0,0,-1,40.4447,140.8193)"/>
</g>
</svg>

<svg xmlns="http://www.w3.org/2000/svg" width="100" height="100" viewBox="-50 -100 386.833 503"><defs><clipPath id="a"><path d="M0 0h296.832v373H0zm0 0"/></clipPath></defs><path d="M49.32 162.348c.485-68.43-43.515-125.164-30.562-166.11h259.32c12.953 40.946-31.047 97.68-30.562 166.11.507 72.203 43.91 132.214 30.562 174.418H18.758C5.406 294.562 48.808 234.55 49.32 162.348" fill="#4d4d4d"/><path d="M92.86-2c-9.743 55.203 6 125.324 6 173 0 46.543-18.247 101.055-15 166l-60.34-.234L42.86 171 23.52-4.195zm0 0" fill="gray"/><g clip-path="url(#a)" transform="translate(0 -20)"><path d="M251.266 281.758c-9.246-29.23-19.727-62.356-19.989-99.293-.254-35.809 10.446-67.735 19.883-95.903 6.953-20.757 13.164-39.292 13.067-54.09H32.605c-.097 14.798 6.114 33.333 13.067 54.09 9.437 28.168 20.137 60.094 19.883 95.903-.262 36.937-10.743 70.066-19.989 99.293-7.16 22.644-13.546 42.828-13.101 58.77H264.37c.442-15.942-5.941-36.126-13.105-58.77M3.277 361.66c-8.523-26.937 1.121-57.422 11.328-89.695 8.555-27.04 18.25-57.688 18.477-89.73.219-30.395-9.145-58.337-18.2-85.356C4.657 66.355-5.007 37.523 3.278 11.339A16.234 16.234 0 0 1 18.757 0h259.321c7.078 0 13.344 4.59 15.48 11.34 8.282 26.183-1.378 55.015-11.609 85.539-9.054 27.02-18.414 54.96-18.199 85.355.227 32.043 9.922 62.688 18.477 89.73 10.21 32.27 19.851 62.759 11.332 89.696a16.242 16.242 0 0 1-15.48 11.34H18.757a16.234 16.234 0 0 1-15.48-11.34"/></g><path d="M98.582 4.543V62.68M198.25 4.543V62.68M23.344 278.273h250.144M40.445 120.82h215.946" fill="none" stroke-width="30" stroke-linejoin="round" stroke="#000" stroke-miterlimit="10"/></svg>
